!!!OTL: Graf und Nonne (Die Nonne)
!!!OTL-incipit:Ich stand auf hohen Bergen
!!!ARE: Europa, Mitteleuropa, Deutschland (), Brandenburg an der Havel
!!!YOR: 8, S. 36
!!    1847 aufgezeichnet
!!!SCT: Q0155F
!!!TXL: @@DE
!!!YEM: Copyright 1995, estate of Helmut Schaffrath.
**kern	**text
*ICvox	*
*M4/4	*
*met(c)	*
*k[]	*
*C:	*
{4c	Jch
=1	=1
4.g	stand
8cc	auf
(8gL	ho-
8eJ)	.
(8fL	-hen
8dJ)	.
=2	=2
2e	Ber-
4d}	-gen
{4d	und
=3	=3
4e	sah
4a	ins
4g	tie-
4f#	-ſe
=4	=4
2g	Thal,
4r}	.
{4g	ein
=5	=5
4cc	Schiff-
4cc	-lein
4b	sah
4g	ich
=6	=6
2a	schwim-
4g	-men,
4r	.
=7	=7
2f	schwim-
4e}	-men,
{4g	wo-
=8	=8
4a	-rin
4f	drei
4e	Gra-
4d	-fen
=9	=9
2c	warn.
4r}	.
==	==
!!!AGN: Ballade, Standesunterschied, Werbung, Liebe
!! Anhaengsel an der dritten Zeile.
!!!ONB: ESAC (Essen Associative Code) Database: BALLADE
!!!AMT: simple quadruple
!!!AIN: vox
!!!EED: Helmut Schaffrath
!!!EEV: 1.0
!!!source: Deutsche Volkslieder mit ihren Melodien. Herausgegeben vom Deutschen Volksliedarchiv. Achter Teil. Freiburg/Breisgau 1988.
!!!page: 36
!!@@COMMENT:"Mündlich aus Brandenburg an der Havel.
!!durch Siemering 1847 (von seiner Mutter) (DVA - E 304)"
!!@@END:
!!!ENC: Anna Maria Matuszewska
!!!EEV: 2025/03/10
*-	*-
